!!!!SEGMENT: pl-kk--kk-i-388--011_anonim--offertorium-sancta-maria.krn
!!!cenid: 18xx:1408
!!!COM: Anonim
!!!COM-rismid: pe30004985
!!!CDT:
!!!CNT:
!!!OTL: Offertorium
!!!PDT:
!!!AGN: Sacred
!!!SMS-siglum: PL-Kk
!!!SMS-shelfmark: Kk.I.388
!!!SMS-shelfwork: 011 W
!!!SMS-variant:
!!!SMS-altvar:
!!!NIFC-rismid: 1001140889
!!!URL-scan: http://repozytorium.nifc.pl/skany/pl-kk-nut--i-388
!!!ONB-nifc:
**kern	**text	**kern	**text	**kern	**text	**kern	**text
*part4	*part4	*part3	*part3	*part2	*part2	*part1	*part1
*staff4	*staff4	*staff3	*staff3	*staff2	*staff2	*staff1	*staff1
*Ibass	*	*Itenor	*	*Ialto	*	*Isoprn	*
*I"Basso.	*	*I"Tenore.	*	*I"Alto.	*	*I"Soprano.	*
*I'B.	*	*I'T.	*	*I'A.	*	*I'S.	*
*clefF4	*	*clefC4	*	*clefC3	*	*clefC1	*
*k[]	*	*k[]	*	*k[]	*	*k[]	*
*F:	*	*F:	*	*F:	*	*F:	*
*M4/4	*	*M4/4	*	*M4/4	*	*M4/4	*
*met(c)	*	*met(c)	*	*met(c)	*	*met(c)	*
=1	=1	=1	=1	=1	=1	=1	=1
*2\right	*	*2\right	*	*2\right	*	*2\right	*
!LO:TX:t=P:problem:metrum c z kropką w środku	!	!LO:TX:t=P:problem:metrum c z kropką w środku	!	!LO:TX:t=P:problem:metrum c z kropką w środku	!	!LO:TX:t=P:problem:metrum c z kropką w środku	!
!LO:TX:a:t=Offertorium.	!	!LO:TX:a:t=Offertorium.	!	!LO:TX:a:t=Offertorium.	!	!LO:TX:a:t=Offertorium.	!
!LO:TX:t=P:problem:all\right:global	!	!LO:TX:t=P:problem:all\right:global	!	!LO:TX:t=P:problem:all\right:global	!	!LO:TX:t=P:problem:all\right:global	!
2C/	San-	2c\	San-	4g\	San-	2ee\	San-
.	.	.	.	4g#X\	.	.	.
2C/	-cta	2c\	-cta	4a\	-cta	4ff\	.
.	.	.	.	4gn\	.	4ee\	-cta,
=2	=2	=2	=2	=2	=2	=2	=2
2C/	San-	2A\	san-	2f#X\	San-	2dd\	San-
2C/	-cta	2G/	-cta	2fn\	-cta	4a\	.
.	.	.	.	.	.	4b\	-cta
=3	=3	=3	=3	=3	=3	=3	=3
4C/	San-	2G/	san-	4e\	san-	2cc\	San-
4E\	.	.	.	4g\	.	.	.
4D\	-cta	4B\	-cta	4g\	-cta	4dd\	-cta
4C/	ma-	4c\	ma-	4g\	ma-	4ee\	Ma-
=4	=4	=4	=4	=4	=4	=4	=4
2BB/	-ri-	2d\	-ri-	2g\	-ri-	4gg\	-ri-
.	.	.	.	.	.	4ff\	.
4C/	-a,	2c\	-a,	4g\	-a,	4ee\	-a,
4r	.	.	.	4r	.	4r	.
!	!	!	!	!LO:LB:g=original	!	!LO:LB:g=original	!
=5	=5	=5	=5	=5	=5	=5	=5
2C/	San-	2c\	san-	2g\	San-	2ee-X\	San-
2D\	-cta	2B-X\	-cta	2g\	-cta	2dd\	-cta
!	!	!LO:LB:g=original	!	!	!	!	!
=6	=6	=6	=6	=6	=6	=6	=6
2E-X\	De-	2B-X\	De-	2g\	De-	2cc#X\	De-
4D\	.	2B-\	-i	2g\	-i	4dd\	.
4C#X/	-i	.	.	.	.	4een\	-i
=7	=7	=7	=7	=7	=7	=7	=7
2D\	ge-	2A\	ge-	2g\	ge-	2dd\	ge-
2D\	-ni-	2A\	-ni-	2f#X\	-ni-	2dd\	-ni-
=8	=8	=8	=8	=8	=8	=8	=8
1GG	-trix,	2.Bn\	-trix,	2.g\	-trix.	2.dd\	-trix
.	.	4r	.	4r	.	4r	.
!LO:LB:g=original	!	!	!	!	!	!	!
=9	=9	=9	=9	=9	=9	=9	=9
2G\	San-	2d\	San-	2b\	San-	2dd\	San-
2E\	-cta	2c#X\	-cta	2a\	-cta	2ee\	-cto
=10	=10	=10	=10	=10	=10	=10	=10
2D\	Vir-	2d\	Vir-	2a\	Vir-	2ff\	Vir-
2D\	-go	2G/	-go,	2fn\	-go	4cc\	.
.	.	.	.	.	.	4b\	-go
=11	=11	=11	=11	=11	=11	=11	=11
2C/	Vir-	2G/	Vir-	2e\	vir-	2cc\	Vir-
2AA/	-go	2c\	-go	2f#X\	-go	4dd\	.
.	.	.	.	.	.	4ee\	-go
!	!	!	!	!	!	!LO:LB:g=original	!
=12	=12	=12	=12	=12	=12	=12	=12
4.GG/	vir-	4c\	vir-	4g\	virg-	4.ee\	vir-
.	.	8.A\	.	(8.f#X\	-gi-	.	.
8GG/	-gi-	.	.	.	.	8dd\	-gi-
.	.	16B\	-gi-	16g\)	.	.	.
4GG/	-num,	4B\	-num,	4g\	-num,	4dd\	-num,
4r	.	4r	.	4ryy	.	4r	.
!	!	!LO:LB:g=original	!	!LO:LB:g=original	!	!	!
=13	=13	=13	=13	=13	=13	=13	=13
2E\	o-	2c\	o-	(4cc\	o-	2gg\	o-
.	.	.	.	4g\)	.	.	.
2D\	-ra	4c\	.	(4a\	-ra	2ff\	-ra
.	.	4B\	-ra	4g\)	.	.	.
=14	=14	=14	=14	=14	=14	=14	=14
4C/	o-	4c\	o-	2g\	o-	2ee\	o-
4C#X/	.	4B-X\	.	.	.	.	.
4D\	-ra	4A\	-ra	4fn\	-ra	8gg\L	-ra
.	.	.	.	.	.	8ff\J	.
4FF/	pro	4A\	pro	4a\	pro	8.ff\L	pro
.	.	.	.	.	.	16cc\Jk	.
=15	=15	=15	=15	=15	=15	=15	=15
1GG	no-	2c\	no-	2g\	no-	2.ee\	no-
.	.	2Bn\	.	2f\	.	.	.
.	.	.	.	.	.	4dd\	.
=16	=16	=16	=16	=16	=16	=16	=16
2.C/	-bis,	2.c\	-bis.	2.e\	-bis,	2.cc\	-bis.
4r	.	4r	.	4r	.	4r	.
!LO:LB:g=original	!	!	!	!	!	!	!
=17||	=17||	=17||	=17||	=17||	=17||	=17||	=17||
2D\	O	2A\	o	2f\	O	2cc\	O
2BB-X/	san-	2B-X\	san-	2f\	san-	2dd\	san-
!	!	!	!	!	!	!LO:LB:g=original	!
=18	=18	=18	=18	=18	=18	=18	=18
4.F\	-ctis-	4.A/	-ctis-	4.f\	-ctis-	4.cc\	-ctis-
8F\	-si-	8G/	-si-	8f\	-si-	8b-X\	-si-
4.F\	-ma,	2F/	-ma	(4f\	-ma	4a\	-ma
.	.	.	.	4g\)	.	4b-\	.
8r	.	.	.	.	.	.	.
!	!	!LO:LB:g=original	!	!LO:LB:g=original	!	!	!
=19	=19	=19	=19	=19	=19	=19	=19
2D\	o	2f\	o	2a\	o	2cc\	o
2BB-X/	pi-	2f\	pi-	2b-X\	pi-	2dd\	pi-
=20	=20	=20	=20	=20	=20	=20	=20
4.F\	-is-	4.f\	-is-	4.a\	-is-	4.cc\	-is-
8F\	-si-	8f\	-si-	8g\	-si-	8b-X\	-si-
2F\	-ma,	2f\	-ma	2f\	-ma	2a\	-ma
=21	=21	=21	=21	=21	=21	=21	=21
2F\	dul-	2f\	dul-	2a\	dul-	2cc\	dul-
2E\	-cis	2c\	-cis	2g\	-cis	2cc\	-cis
=22	=22	=22	=22	=22	=22	=22	=22
2D\	Vir-	2Bn\	vir-	2f\	Vir-	2dd\	Vir-
4C/	-go	4c\	-go	4e\	-go	4ee\	-go
4F\	ma-	4d\	ma-	4a\	ma-	4ff\	Ma-
=23	=23	=23	=23	=23	=23	=23	=23
2G\	-ri-	2c\	-ri-	2g\	-ri-	2ee\	-ri-
2GG/	.	2Bn\	.	2f\	.	4dd\	.
.	.	.	.	.	.	4ee\	.
=24	=24	=24	=24	=24	=24	=24	=24
1C	-a.	1G	-a.	1e	-a,	1cc	-a.
!LO:LB:g=original	!	!	!	!	!	!LO:LB:g=original	!
=25||	=25||	=25||	=25||	=25||	=25||	=25||	=25||
!LO:TX:t=P:problem:takty 25-32 ujęte w repetycję	!	!	!	!	!	!LO:TX:t=P:problem:takty 25-32 ujęte w repetycję	!
2C/	ma-	2c\	ma-	4.e\	ma-	4.g\	ma-
.	.	.	.	8f\	.	8a\	.
4C/	-ter	4c\	-ter,	4e\	-ter	4g\	-ter
4C/	a-	4c\	a-	4f\	a-	4a\	a-
!	!	!LO:LB:g=original	!	!LO:LB:g=original	!	!	!
=26	=26	=26	=26	=26	=26	=26	=26
2C/	-ma-	2c\	-ma-	4.g\	-ma-	4.b-X\	-ma-
.	.	.	.	8a\	.	8cc\	.
2C/	-ta,	2c\	-ta,	2g\	-ta,	2b-\	-ta
=27	=27	=27	=27	=27	=27	=27	=27
2F\	in-	2c\	in-	4.f\	in-	4.a\	in-
.	.	.	.	8g\	.	8b-X\	.
4F\	-te-	4c\	-te-	4f\	-te-	4a\	-te-
4F\	-me-	4c\	-me-	4g\	-me-	4b-\	-me-
=28	=28	=28	=28	=28	=28	=28	=28
2F\	-ra-	2c\	-ra-	4.a\	-ra-	4.cc\	-ra-
.	.	.	.	8b-X\	.	8dd\	.
2F\	-ta	2c\	-ta	2a\	-ta	2cc\	-ta,
=29	=29	=29	=29	=29	=29	=29	=29
2F\	o-	4d\	o-	2f\	o-	(4ff\	o-
.	.	4c\	.	.	.	4ee\)	.
2F\	-ra	4B-X\	-ra	2f\	-ra	(4dd\	-ra
.	.	4A\	.	.	.	4cc\)	[[pro]]
!	!	!	!	!	!	!LO:LB:g=original	!
=30	=30	=30	=30	=30	=30	=30	=30
2BB-X/	o-	4d\	o-	2f\	o-	4ff\	o-
.	.	4B-X\	.	.	.	4dd\	.
4BB-/	-ra	4A\	-ra	4f\	-ra	4cc\	-ra
4BB-/	pro	4G/	pro	4g\	pro	4b-X\	pro
=31	=31	=31	=31	=31	=31	=31	=31
1C	no-	2.c\	no-	2f\	no-	2a\	no-
!	!	!	!	!LO:LB:g=original	!	!	!
.	.	.	.	2e\	.	4g\	.
.	.	4B-X\	.	.	.	4a\	.
=32	=32	=32	=32	=32	=32	=32	=32
1FF	-bis.	1A	-bis,	1c	-bis,	1f	-bis.
!	!	!LO:LB:g=original	!	!	!	!	!
=33	=33	=33	=33	=33	=33	=33	=33
!LO:TX:t=P:problem:takty 33-40 zapisane repetycją2	!	!	!	!	!	!LO:TX:t=P:problem:takty 33-40 zapisane repetycją	!
2C/yy	ma-	2c\	ma-	4.e\	ma-	4.g\yy	ma-
.	.	.	.	8f\	.	8a\yy	.
4C/yy	-ter	4c\	-ter,	4e\	-ter	4g\yy	-ter
4C/yy	a-	4c\	a-	4f\	a-	4a\yy	a-
=34	=34	=34	=34	=34	=34	=34	=34
2C/yy	-ma-	2c\	-ma-	4.g\	-ma-	4.b-X\yy	-ma-
.	.	.	.	8a\	.	8cc\yy	.
2C/yy	-ta,	2c\	-ta,	2g\	-ta	2b-\yy	-ta
=35	=35	=35	=35	=35	=35	=35	=35
2F\yy	in-	2c\	in-	4.f\	in-	4.a\yy	in-
.	.	.	.	8g\	.	8b-X\yy	.
4F\yy	-te-	4c\	-te-	4f\	-te-	4a\yy	-te-
4F\yy	-me-	4c\	-me-	4g\	-me-	4b-\yy	-me-
=36	=36	=36	=36	=36	=36	=36	=36
2F\yy	-ra-	2c\	-ra-	4.a\	-ra-	4.cc\yy	-ra-
.	.	.	.	8b-X\	.	8dd\yy	.
2F\yy	-ta	2c\	-ta,	2a\	-ta,	2cc\yy	-ta,
!	!	!	!	!LO:LB:g=original	!	!	!
=37	=37	=37	=37	=37	=37	=37	=37
2F\yy	o-	4d\	o-	2f\	o-	(4ff\yy	o-
.	.	4c\	.	.	.	4ee\)yy	.
2F\yy	-ra	4B-X\	-ra	2f\	-ra	(4dd\yy	-ra
.	.	4A\	.	.	.	4cc\)yy	[[pro]]
=38	=38	=38	=38	=38	=38	=38	=38
2BB-X/yy	o-	4d\	o-	2f\	o-	4ff\yy	o-
.	.	4B-X\	.	.	.	4dd\yy	.
4BB-/yy	-ra	4A\	-ra	4f\	-ra	4cc\yy	-ra
4BB-/yy	pro	4G\	pro	4g\	pro	4b-X\yy	pro
=39	=39	=39	=39	=39	=39	=39	=39
1Cyy	no-	2.c\	no-	2f\	no-	2a\yy	no-
.	.	.	.	2e\	.	4g\yy	.
.	.	4B-X\	.	.	.	4a\yy	.
=40	=40	=40	=40	=40	=40	=40	=40
1FFyy	-bis.	1A	-bis.	1c	-bis.	1fyy	-bis.
==	==	==	==	==	==	==	==
*-	*-	*-	*-	*-	*-	*-	*-
!!!system-decoration: [(g1)]
!!!AIN: 1 alto 1 bass 1 soprn 1 tenor
!!!ENC: Anna Matuszewska
!!!END: 2021-01-19
!!!ENC: Andrzej Gręziak
!!!END: 2020-01-15
